elide/concept/src/learn1.svg

<svg clip-rule="evenodd" fill-rule="evenodd" stroke-linejoin="round" stroke-miterlimit="2" viewBox="0 0 100 100" xmlns="http://www.w3.org/2000/svg"><path d="m0 0h100v100h-100z" fill="none"/><path d="m46.833 27.066c.446-1.373 1.724-2.302 3.167-2.302s2.721.929 3.167 2.302c1.986 6.11 4.171 12.835 4.171 12.835h13.495c1.443 0 2.722.929 3.168 2.301.445 1.372-.043 2.875-1.21 3.723-5.198 3.776-10.918 7.933-10.918 7.933s2.185 6.724 4.17 12.835c.446 1.372-.043 2.875-1.21 3.723s-2.748.848-3.915 0c-5.198-3.776-10.918-7.932-10.918-7.932s-5.72 4.156-10.918 7.932c-1.167.848-2.748.848-3.915 0s-1.656-2.351-1.21-3.723c1.985-6.111 4.17-12.835 4.17-12.835s-5.72-4.157-10.918-7.933c-1.167-.848-1.655-2.351-1.21-3.723.446-1.372 1.725-2.301 3.168-2.301h13.495s2.185-6.725 4.171-12.835z" fill="#01b7ff" transform="matrix(.900819 0 0 .900819 4.95906 5.60011)"/></svg>

<?xml version="1.0" encoding="UTF-8" standalone="no"?>
<!DOCTYPE svg PUBLIC "-//W3C//DTD SVG 1.1//EN" "http://www.w3.org/Graphics/SVG/1.1/DTD/svg11.dtd">
<svg width="100%" height="100%" viewBox="0 0 100 100" version="1.1" xmlns="http://www.w3.org/2000/svg" xmlns:xlink="http://www.w3.org/1999/xlink" xml:space="preserve" xmlns:serif="http://www.serif.com/" style="fill-rule:evenodd;clip-rule:evenodd;stroke-linejoin:round;stroke-miterlimit:2;">
    <rect id="Artboard1" x="0" y="0" width="100" height="100" style="fill:none;"/>
    <g id="Artboard11" serif:id="Artboard1">
        <g transform="matrix(0.900819,0,0,0.900819,4.95906,5.60011)">
            <path d="M46.833,27.066C47.279,25.693 48.557,24.764 50,24.764C51.443,24.764 52.721,25.693 53.167,27.066C55.153,33.176 57.338,39.901 57.338,39.901C57.338,39.901 64.409,39.901 70.833,39.901C72.276,39.901 73.555,40.83 74.001,42.202C74.446,43.574 73.958,45.077 72.791,45.925C67.593,49.701 61.873,53.858 61.873,53.858C61.873,53.858 64.058,60.582 66.043,66.693C66.489,68.065 66,69.568 64.833,70.416C63.666,71.264 62.085,71.264 60.918,70.416C55.72,66.64 50,62.484 50,62.484C50,62.484 44.28,66.64 39.082,70.416C37.915,71.264 36.334,71.264 35.167,70.416C34,69.568 33.511,68.065 33.957,66.693C35.942,60.582 38.127,53.858 38.127,53.858C38.127,53.858 32.407,49.701 27.209,45.925C26.042,45.077 25.554,43.574 25.999,42.202C26.445,40.83 27.724,39.901 29.167,39.901C35.591,39.901 42.662,39.901 42.662,39.901C42.662,39.901 44.847,33.176 46.833,27.066Z" style="fill:rgb(1,183,255);"/>
        </g>
    </g>
</svg>
